packages/ui-icons/svg/Line/expand-items.svg

<svg viewBox="0 0 1920 1920" version="1.1" xmlns="http://www.w3.org/2000/svg">
    <path d="M960.18174 0.0116972603L451 509.193437 533.69963 592.01004 901.812411 223.897259 901.812411 1696.11444 533.69963 1328.11863 451 1410.81826 960.18174 1920 1469.36348 1410.81826 1386.78082 1328.11863 1018.66804 1696.11444 1018.66804 223.897259 1386.78082 592.01004 1469.36348 509.193437z" stroke="none" stroke-width="1" fill-rule="evenodd"/>
</svg>

<svg viewBox="0 0 1920 1920" xmlns="http://www.w3.org/2000/svg">
    <path d="M960.182.012 451 509.193l82.7 82.817 368.112-368.113v1472.217L533.7 1328.12l-82.7 82.7L960.182 1920l509.181-509.182-82.582-82.7-368.113 367.996V223.897l368.113 368.113 82.582-82.817z" fill-rule="evenodd"/>
</svg>
